raw/spot/spot-no-access.svg

<svg width="80" height="80" viewBox="0 0 80 80" fill="none" xmlns="http://www.w3.org/2000/svg">
<path d="M53 31V24C53 15.7157 46.2843 9 38 9C29.7157 9 23 15.7157 23 24V31" stroke="#E3E7F5" stroke-width="5.76"/>
<path fill-rule="evenodd" clip-rule="evenodd" d="M59 74C63.4183 74 67 70.4183 67 66V37C67 32.5817 63.4183 29 59 29H17C12.5817 29 9 32.5817 9 37V66C9 70.4183 12.5817 74 17 74H59Z" fill="#E3E7F5"/>
<path d="M59.1328 61.3473C61.9047 59.747 62.8545 56.2025 61.2541 53.4306C59.6537 50.6587 56.1093 49.7089 53.3374 51.3093C50.5654 52.9097 49.6157 56.4541 51.2161 59.226C52.8165 61.998 56.3609 62.9477 59.1328 61.3473Z" stroke="#0066FF" stroke-width="4"/>
<path d="M59.3047 61.2539L65.4411 71.8824" stroke="#0066FF" stroke-width="4" stroke-linecap="square"/>
<path d="M62.908 66.1127L67.5845 63.4127" stroke="#0066FF" stroke-width="4" stroke-linecap="square"/>
<path opacity="0.8" fill-rule="evenodd" clip-rule="evenodd" d="M39.5096 51.6599C39.3987 51.3526 39.5477 51.0168 39.8165 50.8312C40.6526 50.2539 41.2004 49.289 41.2004 48.1961C41.2004 46.4288 39.7678 44.9961 38.0004 44.9961C36.2331 44.9961 34.8004 46.4288 34.8004 48.1961C34.8004 49.2316 35.2923 50.1522 36.0551 50.7371C36.3028 50.927 36.4342 51.2488 36.3283 51.5423L34.5782 56.3885C34.2958 57.1707 34.8753 57.9961 35.7069 57.9961H40.0885C40.9202 57.9961 41.4997 57.1707 41.2172 56.3885L39.5096 51.6599Z" fill="#BDC3D7"/>
</svg>

<svg width="80" height="80" viewBox="0 0 80 80" fill="none" xmlns="http://www.w3.org/2000/svg"><path d="M53 31v-7c0-8.284-6.716-15-15-15-8.284 0-15 6.716-15 15v7" stroke="#E3E7F5" stroke-width="5.76"/><path fill-rule="evenodd" clip-rule="evenodd" d="M59 74a8 8 0 0 0 8-8V37a8 8 0 0 0-8-8H17a8 8 0 0 0-8 8v29a8 8 0 0 0 8 8h42z" fill="#E3E7F5"/><path d="M59.133 61.347a5.795 5.795 0 1 0-5.796-10.038 5.795 5.795 0 0 0 5.796 10.038z" stroke="#06F" stroke-width="4"/><path d="m59.305 61.254 6.136 10.628M62.908 66.113l4.677-2.7" stroke="#06F" stroke-width="4" stroke-linecap="square"/><path opacity=".8" fill-rule="evenodd" clip-rule="evenodd" d="M39.51 51.66c-.111-.307.038-.643.306-.829a3.2 3.2 0 1 0-3.761-.094c.248.19.38.512.273.805l-1.75 4.846a1.2 1.2 0 0 0 1.129 1.608h4.382a1.2 1.2 0 0 0 1.128-1.608L39.51 51.66z" fill="#BDC3D7"/></svg>
